report_00007_2020-12-11T15:55:29.892Z/network-rtt/samples/pages+cached+noexternal+nocss/raw/histogram.svg

<svg width="640" height="490" xmlns="http://www.w3.org/2000/svg" xmlns:xlink="http://www.w3.org/1999/xlink"><path fill="#fff" d="M0 0h640v490H0z"/><defs><path id="d" stroke-width=".222" stroke="currentColor" d="M-1-1h2v2h-2z"/><path id="b" stroke-width=".222" stroke="currentColor" d="M0-1.33l-1.33 2h2.66z"/><path id="f" stroke-width=".222" stroke="currentColor" d="M0 1.33L1.265.411.782-1.067l-1.564-.009-.483 1.487z"/><use xlink:href="#b" id="c" stroke="currentColor" transform="rotate(180)"/><use xlink:href="#d" id="e" stroke="currentColor" transform="rotate(45)"/><circle id="a" stroke-width=".222" stroke="currentColor" cx="0" cy="0" r="1"/></defs><g fill="none" color="#000" stroke="currentColor"><path stroke="#000" d="M53.9 436h9m552.1 0h-9"/><text transform="translate(45.6 439.9)" stroke="none" fill="#000" font-family="Arial" font-size="12" text-anchor="end"><tspan>0</tspan></text></g><g fill="none" color="#000" stroke="currentColor"><path stroke="#000" d="M53.9 352.4h9m552.1 0h-9"/><text transform="translate(45.6 356.3)" stroke="none" fill="#000" font-family="Arial" font-size="12" text-anchor="end"><tspan>20</tspan></text></g><g fill="none" color="#000" stroke="currentColor"><path stroke="#000" d="M53.9 268.8h9m552.1 0h-9"/><text transform="translate(45.6 272.7)" stroke="none" fill="#000" font-family="Arial" font-size="12" text-anchor="end"><tspan>40</tspan></text></g><g fill="none" color="#000" stroke="currentColor"><path stroke="#000" d="M53.9 185.3h9m552.1 0h-9"/><text transform="translate(45.6 189.2)" stroke="none" fill="#000" font-family="Arial" font-size="12" text-anchor="end"><tspan>60</tspan></text></g><g fill="none" color="#000" stroke="currentColor"><path stroke="#000" d="M53.9 101.7h9m552.1 0h-9"/><text transform="translate(45.6 105.6)" stroke="none" fill="#000" font-family="Arial" font-size="12" text-anchor="end"><tspan>80</tspan></text></g><g fill="none" color="#000" stroke="currentColor"><path stroke="#000" d="M53.9 18.1h9m552.1 0h-9"/><text transform="translate(45.6 22)" stroke="none" fill="#000" font-family="Arial" font-size="12" text-anchor="end"><tspan>100</tspan></text></g><g fill="none" color="#000" stroke="currentColor"><path stroke="#000" d="M82.7 436v-9m0-408.9v9"/><text transform="translate(82.7 457.9)" stroke="none" fill="#000" font-family="Arial" font-size="12" text-anchor="middle"><tspan>0.05</tspan></text></g><g fill="none" color="#000" stroke="currentColor"><path stroke="#000" d="M193.6 436v-9m0-408.9v9"/><text transform="translate(193.6 457.9)" stroke="none" fill="#000" font-family="Arial" font-size="12" text-anchor="middle"><tspan>0.06</tspan></text></g><g fill="none" color="#000" stroke="currentColor"><path stroke="#000" d="M304.5 436v-9m0-408.9v9"/><text transform="translate(304.5 457.9)" stroke="none" fill="#000" font-family="Arial" font-size="12" text-anchor="middle"><tspan>0.07</tspan></text></g><g fill="none" color="#000" stroke="currentColor"><path stroke="#000" d="M415.4 436v-9m0-408.9v9"/><text transform="translate(415.4 457.9)" stroke="none" fill="#000" font-family="Arial" font-size="12" text-anchor="middle"><tspan>0.08</tspan></text></g><g fill="none" color="#000" stroke="currentColor"><path stroke="#000" d="M526.3 436v-9m0-408.9v9"/><text transform="translate(526.3 457.9)" stroke="none" fill="#000" font-family="Arial" font-size="12" text-anchor="middle"><tspan>0.09</tspan></text></g><path stroke="#000" d="M53.9 18.1V436H615V18.1H53.9z" fill="none" color="#000"/><text transform="translate(317.5 475.9)" stroke="none" fill="#000" font-family="Arial" font-size="12" text-anchor="end" color="#000"><tspan>raw</tspan></text><g stroke="none" shape-rendering="geometricPrecision" fill="#9400D3" fill-opacity=".5" color="#000"><path d="M325.8 476.5H368v-9h-42.2zM53.9 436h125.2V318.9H53.9z"/><path d="M179 436h260.3V176.8H179z"/><path d="M439.2 436h175.9v-41.9H439.2z"/></g><g fill="none" color="#000" stroke="currentColor"><path stroke="#000" d="M53.9 18.1V436H615V18.1H53.9z"/></g></svg>

<?xml version="1.0" encoding="utf-8"  standalone="no"?>
<svg 
 width="640" height="490"
 viewBox="0 0 640 490"
 xmlns="http://www.w3.org/2000/svg"
 xmlns:xlink="http://www.w3.org/1999/xlink"
>

<title>Gnuplot</title>
<desc>Produced by GNUPLOT 5.4 patchlevel 0 </desc>

<g id="gnuplot_canvas">

<rect x="0" y="0" width="640" height="490" fill="#ffffff"/>
<defs>

	<circle id='gpDot' r='0.5' stroke-width='0.5' stroke='currentColor'/>
	<path id='gpPt0' stroke-width='0.222' stroke='currentColor' d='M-1,0 h2 M0,-1 v2'/>
	<path id='gpPt1' stroke-width='0.222' stroke='currentColor' d='M-1,-1 L1,1 M1,-1 L-1,1'/>
	<path id='gpPt2' stroke-width='0.222' stroke='currentColor' d='M-1,0 L1,0 M0,-1 L0,1 M-1,-1 L1,1 M-1,1 L1,-1'/>
	<rect id='gpPt3' stroke-width='0.222' stroke='currentColor' x='-1' y='-1' width='2' height='2'/>
	<rect id='gpPt4' stroke-width='0.222' stroke='currentColor' fill='currentColor' x='-1' y='-1' width='2' height='2'/>
	<circle id='gpPt5' stroke-width='0.222' stroke='currentColor' cx='0' cy='0' r='1'/>
	<use xlink:href='#gpPt5' id='gpPt6' fill='currentColor' stroke='none'/>
	<path id='gpPt7' stroke-width='0.222' stroke='currentColor' d='M0,-1.33 L-1.33,0.67 L1.33,0.67 z'/>
	<use xlink:href='#gpPt7' id='gpPt8' fill='currentColor' stroke='none'/>
	<use xlink:href='#gpPt7' id='gpPt9' stroke='currentColor' transform='rotate(180)'/>
	<use xlink:href='#gpPt9' id='gpPt10' fill='currentColor' stroke='none'/>
	<use xlink:href='#gpPt3' id='gpPt11' stroke='currentColor' transform='rotate(45)'/>
	<use xlink:href='#gpPt11' id='gpPt12' fill='currentColor' stroke='none'/>
	<path id='gpPt13' stroke-width='0.222' stroke='currentColor' d='M0,1.330 L1.265,0.411 L0.782,-1.067 L-0.782,-1.076 L-1.265,0.411 z'/>
	<use xlink:href='#gpPt13' id='gpPt14' fill='currentColor' stroke='none'/>
	<filter id='textbox' filterUnits='objectBoundingBox' x='0' y='0' height='1' width='1'>
	  <feFlood flood-color='#FFFFFF' flood-opacity='1' result='bgnd'/>
	  <feComposite in='SourceGraphic' in2='bgnd' operator='atop'/>
	</filter>
	<filter id='greybox' filterUnits='objectBoundingBox' x='0' y='0' height='1' width='1'>
	  <feFlood flood-color='lightgrey' flood-opacity='1' result='grey'/>
	  <feComposite in='SourceGraphic' in2='grey' operator='atop'/>
	</filter>
</defs>
<g fill="none" color="#FFFFFF" stroke="black" stroke-width="1.00" stroke-linecap="butt" stroke-linejoin="miter">
</g>
<g fill="none" color="black" stroke="currentColor" stroke-width="1.00" stroke-linecap="butt" stroke-linejoin="miter">
	<path stroke='black'  d='M53.9,436.0 L62.9,436.0 M615.0,436.0 L606.0,436.0  '/>	<g transform="translate(45.6,439.9)" stroke="none" fill="black" font-family="Arial" font-size="12.00"  text-anchor="end">
		<text><tspan font-family="Arial" > 0</tspan></text>
	</g>
</g>
<g fill="none" color="black" stroke="currentColor" stroke-width="1.00" stroke-linecap="butt" stroke-linejoin="miter">
	<path stroke='black'  d='M53.9,352.4 L62.9,352.4 M615.0,352.4 L606.0,352.4  '/>	<g transform="translate(45.6,356.3)" stroke="none" fill="black" font-family="Arial" font-size="12.00"  text-anchor="end">
		<text><tspan font-family="Arial" > 20</tspan></text>
	</g>
</g>
<g fill="none" color="black" stroke="currentColor" stroke-width="1.00" stroke-linecap="butt" stroke-linejoin="miter">
	<path stroke='black'  d='M53.9,268.8 L62.9,268.8 M615.0,268.8 L606.0,268.8  '/>	<g transform="translate(45.6,272.7)" stroke="none" fill="black" font-family="Arial" font-size="12.00"  text-anchor="end">
		<text><tspan font-family="Arial" > 40</tspan></text>
	</g>
</g>
<g fill="none" color="black" stroke="currentColor" stroke-width="1.00" stroke-linecap="butt" stroke-linejoin="miter">
	<path stroke='black'  d='M53.9,185.3 L62.9,185.3 M615.0,185.3 L606.0,185.3  '/>	<g transform="translate(45.6,189.2)" stroke="none" fill="black" font-family="Arial" font-size="12.00"  text-anchor="end">
		<text><tspan font-family="Arial" > 60</tspan></text>
	</g>
</g>
<g fill="none" color="black" stroke="currentColor" stroke-width="1.00" stroke-linecap="butt" stroke-linejoin="miter">
	<path stroke='black'  d='M53.9,101.7 L62.9,101.7 M615.0,101.7 L606.0,101.7  '/>	<g transform="translate(45.6,105.6)" stroke="none" fill="black" font-family="Arial" font-size="12.00"  text-anchor="end">
		<text><tspan font-family="Arial" > 80</tspan></text>
	</g>
</g>
<g fill="none" color="black" stroke="currentColor" stroke-width="1.00" stroke-linecap="butt" stroke-linejoin="miter">
	<path stroke='black'  d='M53.9,18.1 L62.9,18.1 M615.0,18.1 L606.0,18.1  '/>	<g transform="translate(45.6,22.0)" stroke="none" fill="black" font-family="Arial" font-size="12.00"  text-anchor="end">
		<text><tspan font-family="Arial" > 100</tspan></text>
	</g>
</g>
<g fill="none" color="black" stroke="currentColor" stroke-width="1.00" stroke-linecap="butt" stroke-linejoin="miter">
	<path stroke='black'  d='M82.7,436.0 L82.7,427.0 M82.7,18.1 L82.7,27.1  '/>	<g transform="translate(82.7,457.9)" stroke="none" fill="black" font-family="Arial" font-size="12.00"  text-anchor="middle">
		<text><tspan font-family="Arial" > 0.05</tspan></text>
	</g>
</g>
<g fill="none" color="black" stroke="currentColor" stroke-width="1.00" stroke-linecap="butt" stroke-linejoin="miter">
	<path stroke='black'  d='M193.6,436.0 L193.6,427.0 M193.6,18.1 L193.6,27.1  '/>	<g transform="translate(193.6,457.9)" stroke="none" fill="black" font-family="Arial" font-size="12.00"  text-anchor="middle">
		<text><tspan font-family="Arial" > 0.06</tspan></text>
	</g>
</g>
<g fill="none" color="black" stroke="currentColor" stroke-width="1.00" stroke-linecap="butt" stroke-linejoin="miter">
	<path stroke='black'  d='M304.5,436.0 L304.5,427.0 M304.5,18.1 L304.5,27.1  '/>	<g transform="translate(304.5,457.9)" stroke="none" fill="black" font-family="Arial" font-size="12.00"  text-anchor="middle">
		<text><tspan font-family="Arial" > 0.07</tspan></text>
	</g>
</g>
<g fill="none" color="black" stroke="currentColor" stroke-width="1.00" stroke-linecap="butt" stroke-linejoin="miter">
	<path stroke='black'  d='M415.4,436.0 L415.4,427.0 M415.4,18.1 L415.4,27.1  '/>	<g transform="translate(415.4,457.9)" stroke="none" fill="black" font-family="Arial" font-size="12.00"  text-anchor="middle">
		<text><tspan font-family="Arial" > 0.08</tspan></text>
	</g>
</g>
<g fill="none" color="black" stroke="currentColor" stroke-width="1.00" stroke-linecap="butt" stroke-linejoin="miter">
	<path stroke='black'  d='M526.3,436.0 L526.3,427.0 M526.3,18.1 L526.3,27.1  '/>	<g transform="translate(526.3,457.9)" stroke="none" fill="black" font-family="Arial" font-size="12.00"  text-anchor="middle">
		<text><tspan font-family="Arial" > 0.09</tspan></text>
	</g>
</g>
<g fill="none" color="black" stroke="currentColor" stroke-width="1.00" stroke-linecap="butt" stroke-linejoin="miter">
</g>
<g fill="none" color="black" stroke="currentColor" stroke-width="1.00" stroke-linecap="butt" stroke-linejoin="miter">
	<path stroke='black'  d='M53.9,18.1 L53.9,436.0 L615.0,436.0 L615.0,18.1 L53.9,18.1 Z  '/></g>
<g fill="none" color="black" stroke="currentColor" stroke-width="1.00" stroke-linecap="butt" stroke-linejoin="miter">
</g>
	<g id="gnuplot_plot_1" ><title>raw</title>
<g fill="none" color="black" stroke="currentColor" stroke-width="1.00" stroke-linecap="butt" stroke-linejoin="miter">
	<g transform="translate(317.5,475.9)" stroke="none" fill="black" font-family="Arial" font-size="12.00"  text-anchor="end">
		<text><tspan font-family="Arial" >raw</tspan></text>
	</g>
</g>
<g fill="none" color="black" stroke="currentColor" stroke-width="1.00" stroke-linecap="butt" stroke-linejoin="miter">
	<g stroke='none' shape-rendering='geometricPrecision'>
		<polygon fill = 'rgb(148,   0, 211)' fill-opacity = '0.500000' points = '325.8,476.5 368.0,476.5 368.0,467.5 325.8,467.5 '/>
		<polygon fill = 'rgb(148,   0, 211)' fill-opacity = '0.500000' points = '53.9,436.0 179.1,436.0 179.1,318.9 53.9,318.9 '/>
		<polygon fill = 'rgb(148,   0, 211)' fill-opacity = '0.500000' points = '179.0,436.0 439.3,436.0 439.3,176.8 179.0,176.8 '/>
		<polygon fill = 'rgb(148,   0, 211)' fill-opacity = '0.500000' points = '439.2,436.0 615.1,436.0 615.1,394.1 439.2,394.1 '/>
	</g>
</g>
	</g>
<g fill="none" color="#FFFFFF" stroke="rgb(148,   0, 211)" stroke-width="2.00" stroke-linecap="butt" stroke-linejoin="miter">
</g>
<g fill="none" color="black" stroke="currentColor" stroke-width="2.00" stroke-linecap="butt" stroke-linejoin="miter">
</g>
<g fill="none" color="black" stroke="black" stroke-width="1.00" stroke-linecap="butt" stroke-linejoin="miter">
</g>
<g fill="none" color="black" stroke="currentColor" stroke-width="1.00" stroke-linecap="butt" stroke-linejoin="miter">
	<path stroke='black'  d='M53.9,18.1 L53.9,436.0 L615.0,436.0 L615.0,18.1 L53.9,18.1 Z  '/></g>
<g fill="none" color="black" stroke="currentColor" stroke-width="1.00" stroke-linecap="butt" stroke-linejoin="miter">
</g>
</g>
</svg>
